logo/relay.svg

<?xml version="1.0" encoding="UTF-8" standalone="no"?>
<svg width="256px" height="151px" viewBox="0 0 256 151" version="1.1" xmlns="http://www.w3.org/2000/svg" xmlns:xlink="http://www.w3.org/1999/xlink" preserveAspectRatio="xMidYMid">
    <g>
        <path d="M208.615113,119.908171 L96.6828809,119.908171 C86.1464977,119.908171 77.5738558,111.336035 77.5738558,100.800664 C77.5738558,90.2622566 86.1454855,81.6896147 96.6828809,81.6896147 L157.811921,81.6896147 C175.652107,81.6896147 190.16456,67.1766553 190.16456,49.3369763 C190.16456,31.4972974 175.652613,16.9828196 157.811921,16.9828196 L47.2233747,16.9828196 C44.1695014,7.14344129 34.994818,0 24.1519938,0 C10.8106997,0 0,10.8106997 0,24.1519938 C0,37.493288 10.8117119,48.3039877 24.1530061,48.3039877 C35.3920217,48.3039877 44.8397929,40.6272255 47.5342949,30.2284573 L47.5342949,30.2284573 L157.812934,30.2284573 C168.347799,30.2284573 176.92044,38.8010992 176.92044,49.3374825 C176.92044,59.8738657 168.348305,68.4465076 157.812934,68.4465076 L96.6838932,68.4465076 C78.8442142,68.4465076 64.3297365,82.9604792 64.3297365,100.800664 C64.3297365,118.640849 78.843202,133.153303 96.6838932,133.153303 L208.614537,133.153303 C211.492318,143.274137 220.802933,150.683743 231.848006,150.683743 C245.1893,150.683743 256,139.873043 256,126.531749 C256,113.190455 245.1893,102.379755 231.848006,102.379755 C220.803669,102.379755 211.49356,109.788373 208.615113,119.908171 Z" fill="#F26B00"></path>
    </g>
</svg>

<svg viewBox="0 0 256 151" xmlns="http://www.w3.org/2000/svg"><path fill="#F26B00" d="M208.61 119.9H96.67c-10.54 0-19.11-8.58-19.11-19.11 0-10.54 8.57-19.12 19.1-19.12h61.12c17.84 0 32.35-14.52 32.35-32.36s-14.52-32.36-32.36-32.36H47.18C44.12 7.11 34.95-.04 24.1-.04 10.75-.04-.06 10.77-.06 24.11c0 13.34 10.81 24.15 24.15 24.15 11.23 0 20.68-7.68 23.38-18.08v0h110.27c10.53 0 19.1 8.57 19.1 19.1 0 10.53-8.58 19.1-19.11 19.1H96.6c-17.84 0-32.36 14.51-32.36 32.35 0 17.84 14.51 32.35 32.35 32.35h111.93c2.87 10.12 12.18 17.53 23.23 17.53 13.34 0 24.15-10.82 24.15-24.16 0-13.35-10.82-24.16-24.16-24.16 -11.05 0-20.36 7.4-23.24 17.52Z"/></svg>
